X:6
T:We love the earth Womans love the birth
M:4/4
L:1/8
Q:1/4=76
K:C
|: C2 EG cEGc | G2 BD gBDg | A2 CE aCEa | F2 AC fACf :|
| c'4 b4 | a4 g4 | f4 e4 | d4 c4 |
